X:1
T:Standin In The Need of Prayer
T:When Moses smote the water
T:Copyright 1881 by The Riverside Press
T:Rodeheaver's Plantation Melodies
T:Rodeheaver's Plantation Melodies
Z:Rodeheaver's Plantation Melodies
%%score [ 1 2 3 4 ]
L:1/8
Q:1/4=70
M:2/4
K:F
V:1 treble nm="Soprano" snm="S."
V:2 treble nm="Alto" snm="A."
V:3 bass nm="Tenor" snm="T."
V:4 bass nm="Bass" snm="B."
V:1
 F2 | FA C>D | F A2 F | AF FF | DC F2 | FA C>D | F A2 F | A2 G>F | F2 || B2 | AG Ac | c3 F | %12
 AF FF | DC B2 | AG Ac | c3 F | A2 G>F | F2!D.C.! |] %18
V:2
 F2 | FA C>D | F A2 F | AF FF | DC F2 | FA C>D | F A2 F | F2 E>F | F2 || B2 | AG Ac | c3 F | %12
w: When|Mo- ses smote the|wa- ter, the|chil- dren all passed|o- ver. When|Mo- ses smote the|wa- ter. The|sea gave a-|way.|O|chil- dren ain't you|glad. You've|
 AF FF | DC B2 | AG Ac | c3 F | F2 E>F | F2 |] %18
w: left that sin- ful|ar- my? O|chil- dren ain't you|glad. The|sea gave a-|way?|
V:3
 A,2 | A,C A,>B, | A, C2 A, | CA, A,A, | B,A, A,2 | A,C A,>B, | A, C2 A, | C2 B,>A, | A,2 || B,2 | %10
 A,G, A,C | C3 F, | F,F, F,F, | A,A, B,2 | A,G, A,C | C3 A, | C2 B,>A, | A,2 |] %18
V:4
 F,2 | F,F, F,>F, | F, F,2 F, | F,F, F,F, | F,F, F,2 | F,F, F,>F, | F, F,2 F, | C,2 C,>F, | F,2 || %9
 D2 | ^C=B, CE | E3 A, | CA, A,A, | F,F, B,2 | A,G, A,C | C3 F, | C,2 C,>F, | F,2 |] %18

